X: 74
T:Scotch Hornpipe. JaW.074
M:C|
Q:1/4=200
S:James Winder Ms, Lancashire, 1835-41
R:Hornpipe
O:England
A:Wyresdale,Lancashire
H:1/8
Z:vmp.Chris Partington, Aug 2004
K:A
a2|g2(fe) (fg)a2|e2(dc)f4|e2(dc)B2A2|G2  B4a2|!
g2(fe) (fg)a2|e2(dc)f4|e2(dc)B2A2|E2A2-A2:|!
|:"rest added"z2|(Ac) (ac)|(fe)(dc) (dc)(BA)|G2B4(cB)|!
(Ac) (ac)|(fe)(dc) (dc)(BA)|"D in ms"E2   H"H"A4:|]
